X:1
T:Title
%%score { 1 | 2 }
L:1/8
M:6/8
K:A
V:1 treble nm="Grand Piano"
V:2 bass 
V:1
 z3 z2[Q:1/4=100] [CE] | [Cc][CA][DF] [CE]2 [CF] | [CE]2 C [CE]2 [CE] | [Cc][CA][DF] [CE]2 [CF] | %4
 G2 A B2 =c | [Cc][CA][DF] [CE]2 [CF] | [CE]2 C [CE]2 [CA] | cBA d2 G |[M:5/8] [CA]-[CA]- [CA]3 | %9
[M:1/8] A |[M:3/4] c2 A d2 B | c2 A B2 B | c2 A d2 B | c2 A B2 E | [Cc][CA] [DF] [CE]2 [CF] | %15
 [CE]2 C [CE]2 [CA] | cB A d2 G |[M:5/8] [CA]-[CA]- [CA]3 |] %18
V:2
 z3 z2 [A,,A,] | [A,,A,][A,,A,][A,,A,] [A,,A,]2 [A,,A,] | [A,,A,]2 [A,,A,] [A,,A,]2 [A,,A,] | %3
 [A,,A,][A,,A,][A,,A,] [A,,A,]2 [A,,A,] | [E,B,D]2 [E,A,D] [E,G,D]2 [E,G,D] | %5
 [A,,A,][A,,A,][A,,A,] [A,,A,]2 [A,,A,] | [A,,A,]2 [A,,A,] [A,,A,]2 [A,,A,] | %7
 [E,A,E][E,B,E][E,CE] [E,B,E]2 [E,B,D] |[M:5/8] [A,,A,]-[A,,A,]- [A,,A,]3 | %9
[M:1/8][K:treble] [A,C] |[M:3/4] [A,E]2 [A,C] [A,F]2 [A,D] | [A,E]2 [A,C] [E,G,E]2 [E,G,E] | %12
 [A,E]2[K:treble] [A,C] [A,F]2 [A,D] | [A,E]2 [A,C][K:bass] [E,G,E]2 [E,G,D] | %14
 [A,,A,][A,,A,] [A,,A,] [A,,A,]2 [A,,A,] | [A,,A,]2 [A,,A,] [A,,A,]2 [A,,A,] | %16
 [E,A,E][E,B,E] [E,CE] [E,B,E]2 [E,B,D] |[M:5/8] [A,,A,]-[A,,A,]- [A,,A,]3 |] %18

